assets/images/balance.svg

<svg height="40" viewBox="0 0 40 40" width="40" xmlns="http://www.w3.org/2000/svg"><g fill="#1c6afd" fill-rule="evenodd"><rect fill-opacity=".05" height="40" rx="5" width="40"/><path d="m24.6484201 11c1.5598576 0 2.8282154 1.2283044 2.8282154 2.7392078l-.0000298 1.6050855c1.4169657.1524262 2.5233943 1.3550284 2.5233943 2.811915v2.9127726c0 1.4548083-1.1064286 2.6572732-2.5233943 2.8096904l.0000298 2.2726416c0 1.5109034-1.270583 2.7392078-2.8304406 2.7392078h-11.8157543c-1.5598576 0-2.8304406-1.2283044-2.8304406-2.7392078v-12.4121051c0-1.5109034 1.270583-2.7392078 2.8304406-2.7392078zm0 2.000445h-11.8179795c-.458389 0-.8299956.3315532-.8299956.7387628v12.4121051c0 .4072096.3716066.7387628.8299956.7387628h11.8179795c.4561638 0 .8299956-.3315532.8299956-.7387628l-.0004157-2.2573129-4.9306035.0009711c-2.3609256 0-4.2834891-1.9225634-4.2834891-4.2834891s1.9225635-4.2834891 4.2834891-4.2834891l4.9306035-.0009929.0004157-1.5877922c0-.4072096-.3716066-.7387628-.8299956-.7387628zm2.5233645 4.3257677h-6.6243881c-1.259457 0-2.283044 1.023587-2.283044 2.2830441 0 1.259457 1.023587 2.283044 2.283044 2.283044h6.6243881c.4561638 0 .8277704-.3716065.8277704-.8277703v-2.9105474c0-.4561638-.3716066-.8277704-.8277704-.8277704zm-6.5932354 1.270583c.5603957 0 1.0146862.4542905 1.0146862 1.0146863 0 .5603957-.4542905 1.0146862-1.0146862 1.0146862-.5603958 0-1.0146863-.4542905-1.0146863-1.0146862 0-.5603958.4542905-1.0146863 1.0146863-1.0146863z" fill-rule="nonzero" opacity=".5"/></g></svg>

<?xml version="1.0" encoding="UTF-8"?>
<svg width="40px" height="40px" viewBox="0 0 40 40" version="1.1" xmlns="http://www.w3.org/2000/svg" xmlns:xlink="http://www.w3.org/1999/xlink">
    <title>钱包icon</title>
    <g id="节点仪表盘" stroke="none" stroke-width="1" fill="none" fill-rule="evenodd">
        <g id="切图" transform="translate(-407.000000, -144.000000)" fill="#1C6AFD">
            <g id="编组-20" transform="translate(407.000000, 144.000000)">
                <rect id="矩形" fill-opacity="0.05" x="0" y="0" width="40" height="40" rx="5"></rect>
                <path d="M24.6484201,11 C26.2082777,11 27.4766355,12.2283044 27.4766355,13.7392078 L27.4766057,15.3442933 C28.8935714,15.4967195 30,16.6993217 30,18.1562083 L30,21.0689809 C30,22.5237892 28.8935714,23.7262541 27.4766057,23.8786713 L27.4766355,26.1513129 C27.4766355,27.6622163 26.2060525,28.8905207 24.6461949,28.8905207 L12.8304406,28.8905207 C11.270583,28.8905207 10,27.6622163 10,26.1513129 L10,13.7392078 C10,12.2283044 11.270583,11 12.8304406,11 L24.6484201,11 Z M24.6484201,13.000445 L12.8304406,13.000445 C12.3720516,13.000445 12.000445,13.3319982 12.000445,13.7392078 L12.000445,26.1513129 C12.000445,26.5585225 12.3720516,26.8900757 12.8304406,26.8900757 L24.6484201,26.8900757 C25.1045839,26.8900757 25.4784157,26.5585225 25.4784157,26.1513129 L25.478,23.894 L20.5473965,23.8949711 C18.1864709,23.8949711 16.2639074,21.9724077 16.2639074,19.611482 C16.2639074,17.2505563 18.1864709,15.3279929 20.5473965,15.3279929 L25.478,15.327 L25.4784157,13.7392078 C25.4784157,13.3319982 25.1068091,13.000445 24.6484201,13.000445 Z M27.1717846,17.3262127 L20.5473965,17.3262127 C19.2879395,17.3262127 18.2643525,18.3497997 18.2643525,19.6092568 C18.2643525,20.8687138 19.2879395,21.8923008 20.5473965,21.8923008 L27.1717846,21.8923008 C27.6279484,21.8923008 27.999555,21.5206943 27.999555,21.0645305 L27.999555,18.1539831 C27.999555,17.6978193 27.6279484,17.3262127 27.1717846,17.3262127 Z M20.5785492,18.5967957 C21.1389449,18.5967957 21.5932354,19.0510862 21.5932354,19.611482 C21.5932354,20.1718777 21.1389449,20.6261682 20.5785492,20.6261682 C20.0181534,20.6261682 19.5638629,20.1718777 19.5638629,19.611482 C19.5638629,19.0510862 20.0181534,18.5967957 20.5785492,18.5967957 Z" id="形状结合" fill-rule="nonzero" opacity="0.5"></path>
            </g>
        </g>
    </g>
</svg>
